X: 38053
T: Spindle Shank, The
R: reel
M: 4/4
K: Gmajor
d2 ge dBAG|F/E/D Ac BGAF|GAGE DEGE|1 FAdc BGGe:|2 FAdc BGGf||
gedB cAAg|f/e/d ad bdaf|gedB cAA^c|1 dega bggf:|2 dega bgge||

